(var oi=1,string;


Environment.stack

string = File.readAllString((Document.current.dir +/+ "arquivo_filho.scd"));


string.asCompileString.postln;
//func.(2);

// this.interpret(
// "(123 + %).postln".format([oi]))
//
// );
//
//
// String

);



(
a = 5 + 7;
b=2;
this.cmdLine.postln;
)

~aa=1

~aa






currentEnvironment === topEnvironment;

